!!!COM: Palestrina, Giovanni Perluigi da
!!!OPR: Missa Ave Maria (1594)
!!!OMD: Gloria
!!!OTL: First Section
**kern	**kern	**kern	**kern
*Ibass	*Itenor	*Icalto	*Icant
!Bassus	!Tenor	!Altus	!Cantus
*clefF4	*clefGv2	*clefG2	*clefG2
*k[]	*k[]	*k[]	*k[]
*A:aeo	*A:aeo	*A:aeo	*A:aeo
*M4/2	*M4/2	*M4/2	*M4/2
=1	=1	=1	=1
0r	1c	0r	0r
.	1G	.	.
=2	=2	=2	=2
0r	4A	0r	1cc
.	4B	.	.
.	4c	.	.
.	4d	.	.
.	2e	.	1g
.	2e	.	.
=3	=3	=3	=3
1F	1f	0r	4a
.	.	.	4b
.	.	.	4cc
.	.	.	4dd
1C	4e	.	2ee
.	4d	.	.
.	4c	.	2ee
.	4B	.	.
=4	=4	=4	=4
4D	2A	1f	1ff
4E	.	.	.
4F	1a	.	.
4G	.	.	.
2A	.	1c	1ee
2A	2a	.	.
=5	=5	=5	=5
1B-	2f	4d	2dd
.	.	4e	.
.	2d	4f	2dd
.	.	4g	.
1A	2e	2a	1cc#
.	2f	2a	.
=6	=6	=6	=6
2G	2g	1b-	2r
2G	2g	.	1dd
1A	1e	1a	.
.	.	.	2cc
=7	=7	=7	=7
2B	1r	2g	2dd
2c	.	2g	2ee
2.F	2r	1a	1ff
.	[2d	.	.
4G	.	.	.
=8	=8	=8	=8
1A	2d]	1a	2.ee
.	2c#	.	.
.	.	.	8dd
.	.	.	8ee
2D	2d	1a	2ff
2C#	2e	.	[2ee
=9	=9	=9	=9
4D	1f	2a	2ee]
4E	.	.	.
4F	.	2a	1dd
4G	.	.	.
1A	1e	1a	.
.	.	.	2cc#
=10	=10	=10	=10
2r	1d	2f	1dd
1d	.	1f	.
.	1a	.	1r
[2c	.	[2e	.
=11	=11	=11	=11
2c]	2g	2e]	0r
2A	2f	2c	.
1B-	1g	1d	.
=12	=12	=12	=12
1A	2.a	1e	2r
.	.	.	2ee
.	4g	.	.
1r	2f	2r	2dd
.	2e	2g	2cc
=13	=13	=13	=13
1r	2f	2a	1dd
.	2g	2b	.
[1A	2c	2cc	1ee
.	[2e	[2a	.
=14	=14	=14	=14
2A]	2e]	2a]	0r
2F	2f	2a	.
2c	2e	2g	.
2d	2d	2f	.
=15	=15	=15	=15
1c	2.e	1g	2r
.	.	.	1ee
.	4d	.	.
1A	4c	4a	.
.	4d	4b	.
.	4e	4cc	2ee
.	4f	4a	.
=16	=16	=16	=16
0r	2g	2b	2dd
.	2a	1cc	2cc
.	1g	.	1dd
.	.	2b	.
=17	=17	=17	=17
1.A	2r	2cc	2ee
.	1e	1a	1cc
2A	2c	2e	2cc
=18	=18	=18	=18
2G	2d	2g	2b
2F	2f	2a	2a
1G	4e	2.g	1b
.	4d	.	.
.	[2d	.	.
.	.	4f	.
=19	=19	=19	=19
1A	2d]	4e	1a
.	.	4d	.
.	4c	2.e	.
.	4B	.	.
2A	2c	.	1r
.	.	4d	.
2A	2e	4c	.
.	.	8B	.
.	.	8A	.
=20	=20	=20	=20
2G	2e	1B	0r
2E	2e	.	.
[1F	2d	2A	.
.	2c	2a	.
=21	=21	=21	=21
1F]	1d	2a	1r
.	.	2a	.
[1E	2.e	2.g	2r
.	.	.	2ee
.	4f	4f	.
=22	=22	=22	=22
1E]	4g	4e	2ee
.	4a	4f	.
.	2.g	4g	2ee
.	.	4a	.
2r	.	2b	2dd
.	4f	.	.
2A	2e	2a	2cc
=23	=23	=23	=23
2D	4d	4b	1dd
.	4c	4a	.
2F	4B	2.a	.
.	4A	.	.
2E	1B	.	1ee
.	.	8g#	.
.	.	8f#	.
2E	.	2g#	.
=24	=24	=24	=24
1A	1c	1a	2r
.	.	.	1ee
1r	[1f	[1a	.
.	.	.	2dd
=25	=25	=25	=25
0r	2f]	2a]	1cc
.	2e	2g	.
.	2d	2f	1dd
.	[2d	4f	.
.	.	4e	.
=26	=26	=26	=26
0r	2d]	4f	2a
.	.	4g	.
.	2c	1a	2cc
.	2d	.	1b
.	2e	2g#	.
=27	=27	=27	=27
2r	2A	2a	1a
1A	1c	2a	.
.	.	1e	1r
2G	2B	.	.
=28	=28	=28	=28
1F	4A	2r	1.cc
.	4B	.	.
.	4c	1a	.
.	4d	.	.
2G	2e	.	.
2G	[2d	2g	2b
=29	=29	=29	=29
2D	2d]	1f	1a
2F	2A	.	.
1E	2B	2g	1ee
.	2c	[2g	.
=30	=30	=30	=30
1D	1d	2g]	2a
.	.	2f#	1dd
1r	2B	2.g	.
.	[2e	.	2cc
.	.	4f	.
=31	=31	=31	=31
0r	2e]	4g	1b
.	.	4e	.
.	2d	4f	.
.	.	4g	.
.	1c	2a	2cc
.	.	[2g	2cc
=32	=32	=32	=32
0r	2d	2g]	2a
.	2d	4f	2.b
.	.	4e	.
.	2A	2f	.
.	.	.	4a
.	2c	2e	[2a
=33	=33	=33	=33
2r	1B	1d	2a]
2.d	.	.	2g#
.	1A	1e	[1a
4d	.	.	.
2c#	.	.	.
=34	=34	=34	=34
2d	2r	1f	0a]
4D	2.d	.	.
4E	.	.	.
4F	.	2f	.
4G	4d	.	.
2A	2c#	2e	.
=35	=35	=35	=35
4D	2d	1f	0r
4E	.	.	.
4F	4A	.	.
4G	4B	.	.
4A	4c	1e	.
4B	4d	.	.
2c	4e	.	.
.	4f	.	.
=36	=36	=36	=36
2B	2g	0r	0r
2.A	2f	.	.
.	2e	.	.
4G	.	.	.
2F	[2d	.	.
=37	=37	=37	=37
1E	2d]	2r	0r
.	2c#	1g	.
2D	1d	.	.
2d	.	2f	.
=38	=38	=38	=38
2c	0r	2g	2r
2B-	.	4d	1dd
.	.	4e	.
1A	.	4f	.
.	.	4g	.
.	.	2a	2cc#
=39	=39	=39	=39
0r	0r	4d	2dd
.	.	4e	.
.	.	4f	4a
.	.	4g	4b
.	.	4a	4cc
.	.	4b	4dd
.	.	2cc	4ee
.	.	.	4ff
=40	=40	=40	=40
0r	2r	2b	2gg
.	1d	2a	2.ff
.	.	[1a	.
.	.	.	4dd
.	2c#	.	2ee
=41	=41	=41	=41
0r	2d	2a]	2ff
.	4A	1cc	4ee
.	4B	.	4dd
.	4c	.	2ee
.	4d	.	.
.	4e	4b	2ee
.	4f	4a	.
=42	=42	=42	=42
0r	2g	2b	2.dd
.	2d	1a	.
.	.	.	4cc
.	2e	.	1b
.	2e	2g#	.
=43	=43	=43	=43
2r	1A	2a	2r
2.A	.	2.cc	2.a
.	2.e	.	.
4A	.	4cc	4a
2G#	.	2b	2b
.	4e	.	.
=44	=44	=44	=44
2A	2e	1.a	2cc
4D	1f	.	2dd
4E	.	.	.
4F	.	.	[1cc
4G	.	.	.
4A	2f	2a	.
4B	.	.	.
=45	=45	=45	=45
1c	2e	2g	2cc]
.	1g	2e	2cc
2d	.	1f	2a
2d	[2f	.	2b
=46	=46	=46	=46
2c	2f]	1g	1cc
2c	2e	.	.
2F	2.f	1a	2r
[2D	.	.	[2ff
.	4g	.	.
=47	=47	=47	=47
2D]	1a	2d	2ff]
2C#	.	2e	1ee
2.D	2r	2.f	.
.	[2f	.	[2dd
4E	.	4g	.
=48	=48	=48	=48
4F	2f]	1a	2dd]
4G	.	.	.
2A	2e	.	2cc
1D	2.d	1f	2b
.	.	.	[2a
.	4c	.	.
=49	=49	=49	=49
1E	1B	2r	2a]
.	.	1e	2g#
1A	1c#	.	2a
.	.	2f	2a
=50	=50	=50	=50
0r	0r	2g	2b
.	.	2a	2cc
.	.	4d	2.dd
.	.	4e	.
.	.	4f	.
.	.	4g	4ee
=51	=51	=51	=51
0r	2r	2a	2ff
.	2A	2cc	2ee
.	2B	2b	2dd
.	2c	[2a	2cc
=52	=52	=52	=52
2r	2d	2a]	2.b
1E	1e	4g	.
.	.	4f	4a
.	.	2g	4b
.	.	.	4g
2F	[2d	2f	2a
=53	=53	=53	=53
2G	2d]	1e	2b
2A	2c	.	2a
4D	1f	1d	[1a
4E	.	.	.
4F	.	.	.
4G	.	.	.
=54	=54	=54	=54
2A	1e	2r	1a]
2c	.	2A	.
2B	2d	2B	1r
[2A	2c	2c	.
=55	=55	=55	=55
2A]	1B	2.d	1r
2G	.	.	.
.	.	4e	.
1A	1A	4f	2r
.	.	4g	.
.	.	[2a	2a
=56	=56	=56	=56
0r	1e	2a]	2b
.	.	2g	2cc
.	2f	2a	2.dd
.	2g	2b	.
.	.	.	4ee
=57	=57	=57	=57
1A	1a	1cc	4ff
.	.	.	4ee
.	.	.	4ee
.	.	.	8dd
.	.	.	8cc
2B	2g	2b	2dd
2c	2e	[2a	[2ee
=58	=58	=58	=58
2d	2f	2a]	4ee]
.	.	.	4dd
2B-	4e	2g	1dd
.	4d	.	.
2.A	1e	1a	.
.	.	.	2cc#
4G	.	.	.
=59	=59	=59	=59
2F	1d	2r	1dd
1G	.	2d	.
.	2r	2e	1r
2F	2A	2f	.
=60	=60	=60	=60
1E	2B	1g	1r
.	2c	.	.
1D	4d	1f	1a
.	4e	.	.
.	4f	.	.
.	4d	.	.
=61	=61	=61	=61
2r	2g	1e	2b
2A	2.a	.	2cc
2B	.	2r	2dd
.	4g	.	.
2c	2g	2e	[2ee
=62	=62	=62	=62
2d	2f	2f	4ee]
.	.	.	4dd
2B-	4e	2g	1dd
.	4d	.	.
1A	1e	1a	.
.	.	.	2cc#
=63	=63	=63	=63
0D	0d	0f#	0dd
=64	=64	=64	=64
0r	1c	1r	0r
.	1c	1g	.
=65	=65	=65	=65
0r	2B	1g	0r
.	2c	.	.
.	2d	2f	.
.	2B	2g	.
=66	=66	=66	=66
0r	2.A	2a	1cc
.	.	2f	.
.	4B	.	.
.	4c	2.e	1cc
.	4B	.	.
.	4c	.	.
.	4d	4f	.
=67	=67	=67	=67
0r	2e	2g	2b
.	2A	2a	2cc
.	4B	4d	[1dd
.	4c	4e	.
.	4d	4f	.
.	4e	4g	.
=68	=68	=68	=68
0r	4f	1a	2dd]
.	4g	.	.
.	1a	.	2cc
.	.	1e	1b
.	2g#	.	.
=69	=69	=69	=69
1.F	1a	2r	2.a
.	.	1a	.
.	.	.	4b
.	2r	.	[1cc
2F	[2c	2a	.
=70	=70	=70	=70
2E	2c]	2g	1cc]
2F	2c	2a	.
2G	2B	2d	1r
4F	2c	2e	.
4E	.	.	.
=71	=71	=71	=71
4D	1.d	2.f	0r
4C	.	.	.
4D	.	.	.
4E	.	4g	.
4F	.	1a	.
4G	.	.	.
[2A	2c	.	.
=72	=72	=72	=72
2A]	1B	1r	0r
2G#	.	.	.
2A	2A	2r	.
[2F	2a	2f	.
=73	=73	=73	=73
4F]	1a	1f	1cc
4G	.	.	.
4A	.	.	.
4B	.	.	.
2c	2g	2e	1cc
2A	2c	2f	.
=74	=74	=74	=74
2G	2d	2g	2b
2A	2c	2e	2cc
1B-	[1f	4d	[1dd
.	.	4e	.
.	.	4f	.
.	.	4g	.
=75	=75	=75	=75
1F	2f]	1a	2dd]
.	4e	.	2cc
.	4d	.	.
1G	2e	2.g	1b
.	[2d	.	.
.	.	4f	.
=76	=76	=76	=76
1A	2d]	1e	1a
.	2c#	.	.
2r	1d	[1a	[1ff
[2D	.	.	.
=77	=77	=77	=77
2D]	2r	2a]	2ff]
2D	1d	2a	2ff
4D	.	1a	1ff
4E	.	.	.
4F	2d	.	.
4G	.	.	.
=78	=78	=78	=78
2A	1c#	2r	1ee
1A	.	1a	.
.	1r	.	2cc
2B-	.	2f	2dd
=79	=79	=79	=79
2G	0r	2g	2ee
2F	.	2a	1ff
1B-	.	4d	.
.	.	4e	.
.	.	4f	4ee
.	.	4g	4dd
=80	=80	=80	=80
0A	2r	4a	2cc
.	.	4b	.
.	1e	2.cc	2a
.	.	.	1cc
.	.	4b	.
.	2c	[2a	.
=81	=81	=81	=81
1r	2d	2a]	1b
.	2e	2g#	.
2r	4A	1a	[1cc
.	4B	.	.
[2A	4c	.	.
.	4d	.	.
=82	=82	=82	=82
2A]	2e	2r	2cc]
2F	2f	1d	2a
2G	1e	.	2b-
2A	.	2c	2a
=83	=83	=83	=83
4D	1d	2f	4a
4E	.	.	4g
4F	.	2f	4a
4G	.	.	4b
4A	4c	2.e	1cc
4B	4d	.	.
2c	4e	.	.
.	4c	4f	.
=84	=84	=84	=84
2G	2d	2g	2b
2A	2c	2e	1a
1E	1B	1e	.
.	.	.	2g#
=85	=85	=85	=85
2r	1A	0c#	0a
2A	.	.	.
1A	2r	.	.
.	2e	.	.
=86	=86	=86	=86
2G	1e	0r	0r
2E	.	.	.
2F	2d	.	.
2G	2B	.	.
=87	=87	=87	=87
2A	2.c	1r	0r
2.c	.	.	.
.	4d	.	.
.	2e	2r	.
4B	.	.	.
4A	[2f	2a	.
4G	.	.	.
=88	=88	=88	=88
2.F	4f]	1a	0r
.	4e	.	.
.	1d	.	.
8E	.	.	.
8D	.	.	.
1E	.	2g	.
.	2c#	2e	.
=89	=89	=89	=89
2D	1d	2f	2r
2G	.	2g	2dd
2F	2.f	[1a	1dd
2D	.	.	.
.	8e	.	.
.	8d	.	.
=90	=90	=90	=90
1A	1e	2a]	2cc
.	.	2.cc	2a
1F	2.A	.	2cc
.	.	4b	.
.	.	2a	2dd
.	4B	.	.
=91	=91	=91	=91
1C	1c	2.g	2ee
.	.	.	2.gg
.	.	4a	.
1r	2r	2b	.
.	.	.	4ff
.	[2c	[2cc	4ee
.	.	.	4dd
=92	=92	=92	=92
0r	2c]	4cc]	2ee
.	.	4g	.
.	2G	2.b	2dd
.	1A	.	2.cc
.	.	4a	.
.	.	[2a	.
.	.	.	8b
.	.	.	8a
=93	=93	=93	=93
1r	1e	2a]	1b
.	.	2g#	.
2r	2.f	1a	2a
[2F	.	.	[2ff
.	4g	.	.
=94	=94	=94	=94
2F]	4a	1cc	2ff]
.	4f	.	.
2C	2.g	.	1ee
1D	.	1a	.
.	4f	.	.
.	4f	.	[2dd
.	8e	.	.
.	8d	.	.
=95	=95	=95	=95
1A	2e	2a	2dd]
.	1f	2a	2cc
1B-	.	2f	1dd
.	4e	2g	.
.	4d	.	.
=96	=96	=96	=96
1A	1e	1a	1cc#
1r	1r	1r	1r
*-	*-	*-	*-
!!!CDT: 1525/^1526/-1594/2/2
!!!OCY: Italia
!!!AGN: Mass (Paraphrase)
!!!AST: renaissance, vocal
!!!ASW: Prayer
!!!PWK: Masses, Book 7
!!!RNB: Cadence finals: D
!!!YOR: Le Opere Complete, v. 23, p. 1
!!!YOO: Rome, Italy: Fratelli Scalera
!!!END: 1992//
!!!EED: John Miller
!!!YEC: Copyright 2000, John Miller
!!!YEN: United States of America
!!!YEM: Rights to all derivative electronic formats reserved.
!!!YEM: Refer to licensing agreement for further details.
!!!YEM: This file must be accompanied by the licensing agreement.
!!!YEM: A copy of the licensing agreement may be found at http://www.music-cog.ohio-state.edu/HumdrumDatabases/Palestrina/license.txt
!!!EMD: converted to Humdrum by Bret Aarden
